src/icons/icon_growth.svg

<svg height="70" viewBox="0 0 70 70" width="70" xmlns="http://www.w3.org/2000/svg"><g fill="none"><path d="m27.9919179 8.99526977c.0519902-1.36930921-.1026474-3.93749356-1.7956632-5.41886899-1.6903496-1.48020807-4.6111351-1.60394786-6.1881726-1.57242923-.0519902 1.3693092.1026474 3.93749355 1.7956632 5.41886898 1.6916827 1.48254278 4.6178005 1.60744993 6.1881726 1.57242924z" fill="#ee5061"/><path d="m44.9973957 7.00150479c-1.2466731-.01920722-3.3764562.12964871-4.6219294 1.37331595-1.2442732 1.24486769-1.4002574 3.38767276-1.3726602 4.62293676 1.2382739.0240091 3.3740564-.1260473 4.6207295-1.3733159 1.2454731-1.2448677 1.4002574-3.38767273 1.3738601-4.62293681z" fill="#ee5061"/><g fill="#000"><path d="m10 32.44375c-5.6075 0-10 2.745-10 6.25v25c0 3.505 4.3925 6.25 10 6.25s10-2.745 10-6.25v-25c0-3.505-4.3925-6.25-10-6.25zm0 35c-4.42 0-7.5-1.97625-7.5-3.75v-2.085c1.81875 1.2825 4.47875 2.08375 7.5 2.08375s5.68125-.80125 7.5-2.08375v2.08375c0 1.77375-3.08 3.75125-7.5 3.75125zm0-6.25c-4.42 0-7.5-1.97625-7.5-3.75v-2.085c1.81875 1.2825 4.47875 2.08375 7.5 2.08375s5.68125-.80125 7.5-2.08375v2.08375c0 1.77375-3.08 3.75125-7.5 3.75125zm0-6.25c-4.42 0-7.5-1.97625-7.5-3.75v-2.085c1.81875 1.2825 4.47875 2.08375 7.5 2.08375s5.68125-.80125 7.5-2.08375v2.08375c0 1.77375-3.08 3.75125-7.5 3.75125zm0-6.25c-4.42 0-7.5-1.97625-7.5-3.75v-2.085c1.81875 1.2825 4.47875 2.08375 7.5 2.08375s5.68125-.80125 7.5-2.08375v2.08375c0 1.77375-3.08 3.75125-7.5 3.75125zm0-6.25c-4.42 0-7.5-1.97625-7.5-3.75s3.08-3.75 7.5-3.75 7.5 1.97625 7.5 3.75-3.08 3.75-7.5 3.75z"/><path d="m60 1.1925c-5.6075 0-10 2.745-10 6.25v56.25c0 3.505 4.3925 6.25 10 6.25s10-2.745 10-6.25v-56.25c0-3.50375-4.3925-6.25-10-6.25zm0 2.5c4.42 0 7.5 1.97625 7.5 3.75s-3.08 3.75-7.5 3.75-7.5-1.97625-7.5-3.75 3.08-3.75 7.5-3.75zm0 63.75125c-4.42 0-7.5-1.97625-7.5-3.75v-2.085c1.81875 1.2825 4.47875 2.08375 7.5 2.08375s5.68125-.80125 7.5-2.08375v2.08375c0 1.77375-3.08 3.75125-7.5 3.75125zm0-6.25c-4.42 0-7.5-1.97625-7.5-3.75v-2.085c1.81875 1.2825 4.47875 2.08375 7.5 2.08375s5.68125-.80125 7.5-2.08375v2.08375c0 1.77375-3.08 3.75125-7.5 3.75125zm0-6.25c-4.42 0-7.5-1.97625-7.5-3.75v-2.085c1.81875 1.2825 4.47875 2.08375 7.5 2.08375s5.68125-.80125 7.5-2.08375v2.08375c0 1.77375-3.08 3.75125-7.5 3.75125zm0-6.25c-4.42 0-7.5-1.97625-7.5-3.75v-2.085c1.81875 1.2825 4.47875 2.08375 7.5 2.08375s5.68125-.80125 7.5-2.08375v2.08375c0 1.77375-3.08 3.75125-7.5 3.75125zm0-6.25c-4.42 0-7.5-1.97625-7.5-3.75v-2.085c1.81875 1.2825 4.47875 2.08375 7.5 2.08375s5.68125-.80125 7.5-2.08375v2.08375c0 1.77375-3.08 3.75125-7.5 3.75125zm0-6.25c-4.42 0-7.5-1.97625-7.5-3.75v-2.085c1.81875 1.2825 4.47875 2.08375 7.5 2.08375s5.68125-.80125 7.5-2.08375v2.08375c0 1.77375-3.08 3.75125-7.5 3.75125zm0-6.25c-4.42 0-7.5-1.97625-7.5-3.75v-2.085c1.81875 1.2825 4.47875 2.08375 7.5 2.08375s5.68125-.80125 7.5-2.08375v2.08375c0 1.77375-3.08 3.75125-7.5 3.75125zm0-6.25c-4.42 0-7.5-1.97625-7.5-3.75v-2.085c1.81875 1.2825 4.47875 2.08375 7.5 2.08375s5.68125-.80125 7.5-2.08375v2.08375c0 1.77375-3.08 3.75125-7.5 3.75125zm0-6.25c-4.42 0-7.5-1.97625-7.5-3.75v-2.085c1.81875 1.2825 4.47875 2.085 7.5 2.085s5.68125-.80125 7.5-2.085v2.085c0 1.7725-3.08 3.75-7.5 3.75z"/><path d="m46.34625 5.04c-.21-.0325-5.15125-.7125-7.93125 2.06875-2.22375 2.22375-2.23375 5.82125-2.1325 7.28375l-2.16625 2.16625c-.235.235-.36625.5525-.36625.885v.7325l-3.75-3.75v-4.1175h-.0075c.05375-2.5-.19-5.535-2.415-7.76-3.115-3.1175-8.67875-2.445-8.9125-2.4075-.5475.08-.9775.46375-1.0575 1.01125-.03375.235-.8025 5.77375 2.31625 8.89 2.05875 2.06 5.185 2.41125 7.1375 2.41125.16 0 .29625-.0175.44-.02125v2.51c0 .3325.13125.64875.36625.88375l4.35625 4.3575c-4.21375.735-7.22375 3.11-7.22375 6.01v37.5c0 3.505 4.3925 6.25 10 6.25s10-2.745 10-6.25v-37.5c0-3.23875-3.755-5.825-8.75-6.19875v-2.03375l1.80125-1.80125c.25375.0175.5575.0325.9225.0325 1.735 0 4.52-.325 6.36-2.16375 2.7825-2.7825 2.1-7.7225 2.06875-7.93125-.07875-.54875-.5075-.97875-1.05625-1.0575zm-18.85375 4.89625c-1.4725.0375-4.21625-.09625-5.8025-1.68375-1.58625-1.58625-1.7325-4.33625-1.68375-5.8025 1.47875-.03375 4.2175.0975 5.8025 1.68375 1.5875 1.58625 1.7325 4.33625 1.68375 5.8025zm7.5075 57.5075c-4.42 0-7.5-1.97625-7.5-3.75v-2.085c1.81875 1.2825 4.47875 2.08375 7.5 2.08375s5.68125-.80125 7.5-2.08375v2.08375c0 1.77375-3.08 3.75125-7.5 3.75125zm0-6.25c-4.42 0-7.5-1.97625-7.5-3.75v-2.085c1.81875 1.2825 4.47875 2.08375 7.5 2.08375s5.68125-.80125 7.5-2.08375v2.08375c0 1.77375-3.08 3.75125-7.5 3.75125zm0-6.25c-4.42 0-7.5-1.97625-7.5-3.75v-2.085c1.81875 1.2825 4.47875 2.08375 7.5 2.08375s5.68125-.80125 7.5-2.08375v2.08375c0 1.77375-3.08 3.75125-7.5 3.75125zm0-6.25c-4.42 0-7.5-1.97625-7.5-3.75v-2.085c1.81875 1.2825 4.47875 2.08375 7.5 2.08375s5.68125-.80125 7.5-2.08375v2.08375c0 1.77375-3.08 3.75125-7.5 3.75125zm0-6.25c-4.42 0-7.5-1.97625-7.5-3.75v-2.085c1.81875 1.2825 4.47875 2.08375 7.5 2.08375s5.68125-.80125 7.5-2.08375v2.08375c0 1.77375-3.08 3.75125-7.5 3.75125zm0-6.25c-4.42 0-7.5-1.97625-7.5-3.75v-2.085c1.81875 1.2825 4.47875 2.08375 7.5 2.08375s5.68125-.80125 7.5-2.08375v2.08375c0 1.77375-3.08 3.75125-7.5 3.75125zm7.5-10c0 1.77375-3.08 3.75-7.5 3.75s-7.5-1.97625-7.5-3.75c0-1.60125 2.5125-3.36125 6.25-3.69v4.055h2.5v-4.05625c3.7375.33 6.25 2.09 6.25 3.69125zm1.06625-13.93375c-1.29875 1.29875-3.52375 1.455-4.81375 1.43-.02875-1.28625.13375-3.5175 1.43-4.81375 1.29625-1.295 3.51625-1.45 4.815-1.43.0275 1.28625-.13375 3.5175-1.43125 4.81375z"/></g></g></svg>

<?xml version="1.0" encoding="UTF-8"?>
<svg width="70px" height="70px" viewBox="0 0 70 70" version="1.1" xmlns="http://www.w3.org/2000/svg" xmlns:xlink="http://www.w3.org/1999/xlink">
    <!-- Generator: sketchtool 46.2 (44496) - http://www.bohemiancoding.com/sketch -->
    <title>447A38CB-BD5D-462A-871C-F5B2C1512085</title>
    <desc>Created with sketchtool.</desc>
    <defs></defs>
    <g id="Symbols" stroke="none" stroke-width="1" fill="none" fill-rule="evenodd">
        <g id="icon/-icon_growth" fill-rule="nonzero">
            <g id="icon_growth">
                <path d="M27.9919179,8.99526977 C28.0439081,7.62596056 27.8892705,5.05777621 26.1962547,3.57640078 C24.5059051,2.09619271 21.5851196,1.97245292 20.0080821,2.00397155 C19.9560919,3.37328075 20.1107295,5.9414651 21.8037453,7.42284053 C23.495428,8.90538331 26.4215458,9.03029046 27.9919179,8.99526977 Z" id="Shape" fill="#EE5061"></path>
                <path d="M44.9973957,7.00150479 C43.7507226,6.98229757 41.6209395,7.1311535 40.3754663,8.37482074 C39.1311931,9.61968843 38.9752089,11.7624935 39.0028061,12.9977575 C40.24108,13.0217666 42.3768625,12.8717102 43.6235356,11.6244416 C44.8690087,10.3795739 45.023793,8.23676887 44.9973957,7.00150479 Z" id="Shape" fill="#EE5061"></path>
                <g id="Group" fill="#000000">
                    <path d="M10,32.44375 C4.3925,32.44375 0,35.18875 0,38.69375 L0,63.69375 C0,67.19875 4.3925,69.94375 10,69.94375 C15.6075,69.94375 20,67.19875 20,63.69375 L20,38.69375 C20,35.18875 15.6075,32.44375 10,32.44375 Z M10,67.44375 C5.58,67.44375 2.5,65.4675 2.5,63.69375 L2.5,61.60875 C4.31875,62.89125 6.97875,63.6925 10,63.6925 C13.02125,63.6925 15.68125,62.89125 17.5,61.60875 L17.5,63.6925 C17.5,65.46625 14.42,67.44375 10,67.44375 Z M10,61.19375 C5.58,61.19375 2.5,59.2175 2.5,57.44375 L2.5,55.35875 C4.31875,56.64125 6.97875,57.4425 10,57.4425 C13.02125,57.4425 15.68125,56.64125 17.5,55.35875 L17.5,57.4425 C17.5,59.21625 14.42,61.19375 10,61.19375 Z M10,54.94375 C5.58,54.94375 2.5,52.9675 2.5,51.19375 L2.5,49.10875 C4.31875,50.39125 6.97875,51.1925 10,51.1925 C13.02125,51.1925 15.68125,50.39125 17.5,49.10875 L17.5,51.1925 C17.5,52.96625 14.42,54.94375 10,54.94375 Z M10,48.69375 C5.58,48.69375 2.5,46.7175 2.5,44.94375 L2.5,42.85875 C4.31875,44.14125 6.97875,44.9425 10,44.9425 C13.02125,44.9425 15.68125,44.14125 17.5,42.85875 L17.5,44.9425 C17.5,46.71625 14.42,48.69375 10,48.69375 Z M10,42.44375 C5.58,42.44375 2.5,40.4675 2.5,38.69375 C2.5,36.92 5.58,34.94375 10,34.94375 C14.42,34.94375 17.5,36.92 17.5,38.69375 C17.5,40.4675 14.42,42.44375 10,42.44375 Z" id="Shape"></path>
                    <path d="M60,1.1925 C54.3925,1.1925 50,3.9375 50,7.4425 L50,63.6925 C50,67.1975 54.3925,69.9425 60,69.9425 C65.6075,69.9425 70,67.1975 70,63.6925 L70,7.4425 C70,3.93875 65.6075,1.1925 60,1.1925 Z M60,3.6925 C64.42,3.6925 67.5,5.66875 67.5,7.4425 C67.5,9.21625 64.42,11.1925 60,11.1925 C55.58,11.1925 52.5,9.21625 52.5,7.4425 C52.5,5.66875 55.58,3.6925 60,3.6925 Z M60,67.44375 C55.58,67.44375 52.5,65.4675 52.5,63.69375 L52.5,61.60875 C54.31875,62.89125 56.97875,63.6925 60,63.6925 C63.02125,63.6925 65.68125,62.89125 67.5,61.60875 L67.5,63.6925 C67.5,65.46625 64.42,67.44375 60,67.44375 Z M60,61.19375 C55.58,61.19375 52.5,59.2175 52.5,57.44375 L52.5,55.35875 C54.31875,56.64125 56.97875,57.4425 60,57.4425 C63.02125,57.4425 65.68125,56.64125 67.5,55.35875 L67.5,57.4425 C67.5,59.21625 64.42,61.19375 60,61.19375 Z M60,54.94375 C55.58,54.94375 52.5,52.9675 52.5,51.19375 L52.5,49.10875 C54.31875,50.39125 56.97875,51.1925 60,51.1925 C63.02125,51.1925 65.68125,50.39125 67.5,49.10875 L67.5,51.1925 C67.5,52.96625 64.42,54.94375 60,54.94375 Z M60,48.69375 C55.58,48.69375 52.5,46.7175 52.5,44.94375 L52.5,42.85875 C54.31875,44.14125 56.97875,44.9425 60,44.9425 C63.02125,44.9425 65.68125,44.14125 67.5,42.85875 L67.5,44.9425 C67.5,46.71625 64.42,48.69375 60,48.69375 Z M60,42.44375 C55.58,42.44375 52.5,40.4675 52.5,38.69375 L52.5,36.60875 C54.31875,37.89125 56.97875,38.6925 60,38.6925 C63.02125,38.6925 65.68125,37.89125 67.5,36.60875 L67.5,38.6925 C67.5,40.46625 64.42,42.44375 60,42.44375 Z M60,36.19375 C55.58,36.19375 52.5,34.2175 52.5,32.44375 L52.5,30.35875 C54.31875,31.64125 56.97875,32.4425 60,32.4425 C63.02125,32.4425 65.68125,31.64125 67.5,30.35875 L67.5,32.4425 C67.5,34.21625 64.42,36.19375 60,36.19375 Z M60,29.94375 C55.58,29.94375 52.5,27.9675 52.5,26.19375 L52.5,24.10875 C54.31875,25.39125 56.97875,26.1925 60,26.1925 C63.02125,26.1925 65.68125,25.39125 67.5,24.10875 L67.5,26.1925 C67.5,27.96625 64.42,29.94375 60,29.94375 Z M60,23.69375 C55.58,23.69375 52.5,21.7175 52.5,19.94375 L52.5,17.85875 C54.31875,19.14125 56.97875,19.9425 60,19.9425 C63.02125,19.9425 65.68125,19.14125 67.5,17.85875 L67.5,19.9425 C67.5,21.71625 64.42,23.69375 60,23.69375 Z M60,17.44375 C55.58,17.44375 52.5,15.4675 52.5,13.69375 L52.5,11.60875 C54.31875,12.89125 56.97875,13.69375 60,13.69375 C63.02125,13.69375 65.68125,12.8925 67.5,11.60875 L67.5,13.69375 C67.5,15.46625 64.42,17.44375 60,17.44375 Z" id="Shape"></path>
                    <path d="M46.34625,5.04 C46.13625,5.0075 41.195,4.3275 38.415,7.10875 C36.19125,9.3325 36.18125,12.93 36.2825,14.3925 L34.11625,16.55875 C33.88125,16.79375 33.75,17.11125 33.75,17.44375 L33.75,18.17625 L30,14.42625 L30,10.30875 L29.9925,10.30875 C30.04625,7.80875 29.8025,4.77375 27.5775,2.54875 C24.4625,-0.56875 18.89875,0.10375 18.665,0.14125 C18.1175,0.22125 17.6875,0.605 17.6075,1.1525 C17.57375,1.3875 16.805,6.92625 19.92375,10.0425 C21.9825,12.1025 25.10875,12.45375 27.06125,12.45375 C27.22125,12.45375 27.3575,12.43625 27.50125,12.4325 L27.50125,14.9425 C27.50125,15.275 27.6325,15.59125 27.8675,15.82625 L32.22375,20.18375 C28.01,20.91875 25,23.29375 25,26.19375 L25,63.69375 C25,67.19875 29.3925,69.94375 35,69.94375 C40.6075,69.94375 45,67.19875 45,63.69375 L45,26.19375 C45,22.955 41.245,20.36875 36.25,19.995 L36.25,17.96125 L38.05125,16.16 C38.305,16.1775 38.60875,16.1925 38.97375,16.1925 C40.70875,16.1925 43.49375,15.8675 45.33375,14.02875 C48.11625,11.24625 47.43375,6.30625 47.4025,6.0975 C47.32375,5.54875 46.895,5.11875 46.34625,5.04 Z M27.4925,9.93625 C26.02,9.97375 23.27625,9.84 21.69,8.2525 C20.10375,6.66625 19.9575,3.91625 20.00625,2.45 C21.485,2.41625 24.22375,2.5475 25.80875,4.13375 C27.39625,5.72 27.54125,8.47 27.4925,9.93625 Z M35,67.44375 C30.58,67.44375 27.5,65.4675 27.5,63.69375 L27.5,61.60875 C29.31875,62.89125 31.97875,63.6925 35,63.6925 C38.02125,63.6925 40.68125,62.89125 42.5,61.60875 L42.5,63.6925 C42.5,65.46625 39.42,67.44375 35,67.44375 Z M35,61.19375 C30.58,61.19375 27.5,59.2175 27.5,57.44375 L27.5,55.35875 C29.31875,56.64125 31.97875,57.4425 35,57.4425 C38.02125,57.4425 40.68125,56.64125 42.5,55.35875 L42.5,57.4425 C42.5,59.21625 39.42,61.19375 35,61.19375 Z M35,54.94375 C30.58,54.94375 27.5,52.9675 27.5,51.19375 L27.5,49.10875 C29.31875,50.39125 31.97875,51.1925 35,51.1925 C38.02125,51.1925 40.68125,50.39125 42.5,49.10875 L42.5,51.1925 C42.5,52.96625 39.42,54.94375 35,54.94375 Z M35,48.69375 C30.58,48.69375 27.5,46.7175 27.5,44.94375 L27.5,42.85875 C29.31875,44.14125 31.97875,44.9425 35,44.9425 C38.02125,44.9425 40.68125,44.14125 42.5,42.85875 L42.5,44.9425 C42.5,46.71625 39.42,48.69375 35,48.69375 Z M35,42.44375 C30.58,42.44375 27.5,40.4675 27.5,38.69375 L27.5,36.60875 C29.31875,37.89125 31.97875,38.6925 35,38.6925 C38.02125,38.6925 40.68125,37.89125 42.5,36.60875 L42.5,38.6925 C42.5,40.46625 39.42,42.44375 35,42.44375 Z M35,36.19375 C30.58,36.19375 27.5,34.2175 27.5,32.44375 L27.5,30.35875 C29.31875,31.64125 31.97875,32.4425 35,32.4425 C38.02125,32.4425 40.68125,31.64125 42.5,30.35875 L42.5,32.4425 C42.5,34.21625 39.42,36.19375 35,36.19375 Z M42.5,26.19375 C42.5,27.9675 39.42,29.94375 35,29.94375 C30.58,29.94375 27.5,27.9675 27.5,26.19375 C27.5,24.5925 30.0125,22.8325 33.75,22.50375 L33.75,26.55875 L36.25,26.55875 L36.25,22.5025 C39.9875,22.8325 42.5,24.5925 42.5,26.19375 Z M43.56625,12.26 C42.2675,13.55875 40.0425,13.715 38.7525,13.69 C38.72375,12.40375 38.88625,10.1725 40.1825,8.87625 C41.47875,7.58125 43.69875,7.42625 44.9975,7.44625 C45.025,8.7325 44.86375,10.96375 43.56625,12.26 Z" id="Shape"></path>
                </g>
            </g>
        </g>
    </g>
</svg>
